docs/_static/meshplex-logo.svg

<?xml version="1.0" encoding="UTF-8" standalone="no"?>
<!-- Created with matplotlib (https://matplotlib.org/) -->

<svg
   xmlns:dc="http://purl.org/dc/elements/1.1/"
   xmlns:cc="http://creativecommons.org/ns#"
   xmlns:rdf="http://www.w3.org/1999/02/22-rdf-syntax-ns#"
   xmlns:svg="http://www.w3.org/2000/svg"
   xmlns="http://www.w3.org/2000/svg"
   xmlns:sodipodi="http://sodipodi.sourceforge.net/DTD/sodipodi-0.dtd"
   xmlns:inkscape="http://www.inkscape.org/namespaces/inkscape"
   height="237.39767pt"
   version="1.1"
   viewBox="0 0 237.39768 237.39767"
   width="237.39767pt"
   id="svg40"
   sodipodi:docname="logo.svg"
   inkscape:version="0.92.4 (5da689c313, 2019-01-14)">
  <metadata
     id="metadata44">
    <rdf:RDF>
      <cc:Work
         rdf:about="">
        <dc:format>image/svg+xml</dc:format>
        <dc:type
           rdf:resource="http://purl.org/dc/dcmitype/StillImage" />
        <dc:title></dc:title>
      </cc:Work>
    </rdf:RDF>
  </metadata>
  <sodipodi:namedview
     pagecolor="#ffffff"
     bordercolor="#666666"
     borderopacity="1"
     objecttolerance="10"
     gridtolerance="10"
     guidetolerance="10"
     inkscape:pageopacity="0"
     inkscape:pageshadow="2"
     inkscape:window-width="1920"
     inkscape:window-height="1009"
     id="namedview42"
     showgrid="false"
     fit-margin-top="0"
     fit-margin-left="0"
     fit-margin-right="0"
     fit-margin-bottom="0"
     inkscape:zoom="1.4485868"
     inkscape:cx="212.63948"
     inkscape:cy="166.78333"
     inkscape:window-x="0"
     inkscape:window-y="34"
     inkscape:window-maximized="1"
     inkscape:current-layer="figure_1" />
  <defs
     id="defs4"
     style="stroke-linecap:butt;stroke-linejoin:round">
    <style
       type="text/css"
       id="style2">
*{stroke-linecap:butt;stroke-linejoin:round;}
  </style>
  </defs>
  <g
     id="figure_1"
     style="stroke-linecap:butt;stroke-linejoin:round"
     transform="translate(-117.46116,-51.991011)">
    <g
       id="axes_1"
       style="stroke-linecap:butt;stroke-linejoin:round">
      <g
         id="patch_2"
         style="stroke-linecap:butt;stroke-linejoin:round">
        <path
           clip-path="url(#p9e91403f37)"
           d="m 236.16,286.88868 c 30.81629,0 60.37458,-12.24344 82.16499,-34.03385 21.7904,-21.79041 34.03385,-51.34869 34.03385,-82.16498 0,-30.8163 -12.24345,-60.37458 -34.03385,-82.164988 C 296.53458,66.734453 266.97629,54.491011 236.16,54.491011 c -30.81629,0 -60.37458,12.243442 -82.16499,34.033851 -21.7904,21.790408 -34.03385,51.348688 -34.03385,82.164988 0,30.81629 12.24345,60.37457 34.03385,82.16498 21.79041,21.79041 51.3487,34.03385 82.16499,34.03385 z"
           style="fill:none;stroke:#999999;stroke-width:5;stroke-linecap:butt;stroke-linejoin:miter"
           id="path9"
           inkscape:connector-curvature="0" />
      </g>
      <g
         id="line2d_1"
         style="stroke-linecap:butt;stroke-linejoin:round">
        <path
           clip-path="url(#p9e91403f37)"
           d="M 236.16,170.68985 V 286.88868"
           style="fill:none;stroke:#999999;stroke-width:5;stroke-linecap:square;stroke-linejoin:round"
           id="path12"
           inkscape:connector-curvature="0" />
      </g>
      <g
         id="line2d_2"
         style="stroke-linecap:butt;stroke-linejoin:round">
        <path
           clip-path="url(#p9e91403f37)"
           d="M 236.16,170.68985 323.60854,94.172378"
           style="fill:none;stroke:#999999;stroke-width:5;stroke-linecap:square;stroke-linejoin:round"
           id="path15"
           inkscape:connector-curvature="0" />
      </g>
      <g
         id="line2d_3"
         style="stroke-linecap:butt;stroke-linejoin:round">
        <path
           clip-path="url(#p9e91403f37)"
           d="M 236.16,170.68985 127.35964,129.88971"
           style="fill:none;stroke:#999999;stroke-width:5;stroke-linecap:square;stroke-linejoin:round"
           id="path18"
           inkscape:connector-curvature="0" />
      </g>
      <g
         id="line2d_4"
         style="stroke-linecap:butt;stroke-linejoin:round">
        <path
           clip-path="url(#p9e91403f37)"
           d="M 195.21969,61.942154 V 225.70338"
           style="fill:none;stroke:#999999;stroke-width:5;stroke-linecap:square;stroke-linejoin:round"
           id="path21"
           inkscape:connector-curvature="0" />
      </g>
      <g
         id="line2d_5"
         style="stroke-linecap:butt;stroke-linejoin:round">
        <path
           clip-path="url(#p9e91403f37)"
           d="M 133.80923,225.70338 249.74638,124.25837"
           style="fill:none;stroke:#999999;stroke-width:5;stroke-linecap:square;stroke-linejoin:round"
           id="path24"
           inkscape:connector-curvature="0" />
      </g>
      <g
         id="line2d_6"
         style="stroke-linecap:butt;stroke-linejoin:round">
        <path
           clip-path="url(#p9e91403f37)"
           d="M 338.51077,225.70338 159.04641,158.40425"
           style="fill:none;stroke:#999999;stroke-width:5;stroke-linecap:square;stroke-linejoin:round"
           id="path27"
           inkscape:connector-curvature="0" />
      </g>
      <g
         id="line2d_7"
         style="stroke-linecap:butt;stroke-linejoin:round">
        <path
           clip-path="url(#p9e91403f37)"
           d="M 133.80923,225.70338 H 338.51077 L 195.21969,61.942154 133.80923,225.70338"
           style="fill:none;stroke:#d62728;stroke-width:5;stroke-linecap:square;stroke-linejoin:round"
           id="path30"
           inkscape:connector-curvature="0" />
      </g>
    </g>
  </g>
  <defs
     id="defs38">
    <clipPath
       id="p9e91403f37"
       style="stroke-linecap:butt;stroke-linejoin:round">
      <rect
         height="266.112"
         width="245.64185"
         x="113.33908"
         y="41.472"
         id="rect35"
         style="stroke-linecap:butt;stroke-linejoin:round" />
    </clipPath>
  </defs>
</svg>

<svg xmlns="http://www.w3.org/2000/svg" height="316.53" version="1.1" viewBox="0 0 237.398 237.398" width="316.53" id="svg40"><defs id="defs4" style="stroke-linecap:butt;stroke-linejoin:round"><style type="text/css" id="style2">*{stroke-linecap:butt;stroke-linejoin:round}</style></defs><g id="figure_1" style="stroke-linecap:butt;stroke-linejoin:round" transform="translate(-117.461 -51.991)"><g id="axes_1" style="stroke-linecap:butt;stroke-linejoin:round"><g id="patch_2" style="stroke-linecap:butt;stroke-linejoin:round"><path clip-path="url(#p9e91403f37)" d="M236.16 286.889a116.204 116.204 0 0 0 82.165-34.034 116.204 116.204 0 0 0 34.034-82.165 116.204 116.204 0 0 0-34.034-82.165A116.204 116.204 0 0 0 236.16 54.49a116.204 116.204 0 0 0-82.165 34.034 116.204 116.204 0 0 0-34.034 82.165 116.204 116.204 0 0 0 34.034 82.165 116.204 116.204 0 0 0 82.165 34.034z" style="fill:none;stroke:#999;stroke-width:5;stroke-linecap:butt;stroke-linejoin:miter" id="path9"/></g><g id="line2d_1" style="stroke-linecap:butt;stroke-linejoin:round"><path clip-path="url(#p9e91403f37)" d="M236.16 170.69v116.199" style="fill:none;stroke:#999;stroke-width:5;stroke-linecap:square;stroke-linejoin:round" id="path12"/></g><g id="line2d_2" style="stroke-linecap:butt;stroke-linejoin:round"><path clip-path="url(#p9e91403f37)" d="m236.16 170.69 87.449-76.518" style="fill:none;stroke:#999;stroke-width:5;stroke-linecap:square;stroke-linejoin:round" id="path15"/></g><g id="line2d_3" style="stroke-linecap:butt;stroke-linejoin:round"><path clip-path="url(#p9e91403f37)" d="m236.16 170.69-108.8-40.8" style="fill:none;stroke:#999;stroke-width:5;stroke-linecap:square;stroke-linejoin:round" id="path18"/></g><g id="line2d_4" style="stroke-linecap:butt;stroke-linejoin:round"><path clip-path="url(#p9e91403f37)" d="M195.22 61.942v163.761" style="fill:none;stroke:#999;stroke-width:5;stroke-linecap:square;stroke-linejoin:round" id="path21"/></g><g id="line2d_5" style="stroke-linecap:butt;stroke-linejoin:round"><path clip-path="url(#p9e91403f37)" d="m133.81 225.703 115.936-101.445" style="fill:none;stroke:#999;stroke-width:5;stroke-linecap:square;stroke-linejoin:round" id="path24"/></g><g id="line2d_6" style="stroke-linecap:butt;stroke-linejoin:round"><path clip-path="url(#p9e91403f37)" d="m338.51 225.703-179.464-67.299" style="fill:none;stroke:#999;stroke-width:5;stroke-linecap:square;stroke-linejoin:round" id="path27"/></g><g id="line2d_7" style="stroke-linecap:butt;stroke-linejoin:round"><path clip-path="url(#p9e91403f37)" d="M133.81 225.703h204.7L195.22 61.943l-61.41 163.76" style="fill:none;stroke:#d62728;stroke-width:5;stroke-linecap:square;stroke-linejoin:round" id="path30"/></g></g></g><defs id="defs38"><clipPath id="p9e91403f37" style="stroke-linecap:butt;stroke-linejoin:round"><path id="rect35" style="stroke-linecap:butt;stroke-linejoin:round" d="M113.339 41.472h245.642v266.112H113.339z"/></clipPath></defs></svg>
